X:1
T:South Polar Skua
R:reel
C:Paul S. Cranford
O:Cape Breton Island
S:http://www.cranfordpub.com
D:currently unrecorded
B:currently unpublished in book form
Z:psc, (re-formatted,updated 9/17/04)
N:A South Polar Skua was sighted by NB Tour boat operator Durlan Ingersoll
H:                                                        copyrights Cranford Publications, SOCAN
L:1/8
Q:333
M:C|
K:A
A,2 CE AEFA|cEAc BecB|AF F/F/F EA,CA,|B,CDE FD EC|
A,2 CE AEFA|cEAc BecB|AF F/F/F EA,CE|[1FdcB cAAB,:|[2FdcB cAA||
|:B|A/A/A aA cEAc|B/B/B bB dEGB|c/c/c ec fedc|[1BAGF EdcB|
A/A/A aA cEAc|B/B/B bB dEGB|c/c/c ec fecA|BdcB A2 A:|
[2BAGF EDCB,|A,2 EA FDEC|B,/B,/B, Bd cABG|AF F/F/F EA,CE|FdcB cAAB,|]
